X: 35
T:Sarah Hobbs
T:Paddys trip to Scotland
D:John Symth Blue Fiddle
M:C
L:1/8
K:D
U(dA) (3AAA BAGF| GABd cABc| (3ddd Ad ceAc| dfed cU(ABc|
dA) (3AAA BAGF| GABd cABc| (3ddd Ad ceAc| dfec d2 U(cB):| 
| V(Ad)f(d Ad)fd| U~g3 f edcB| Acec Acec| effe dcBc|
 Adfd Adfd| ~g3 f edcB|aA (3AAA dcBA|(3Bcd ec d2 U(cB):|
